Obsidian/actions/22s/align-horizontal-center.svg

<svg height="22" viewBox="0 0 22 22" width="22" xmlns="http://www.w3.org/2000/svg"><path d="m7 1v1h-4v4h4v4h-4v4h4v1h2v-1h4v-4h-4v-4h4v-4h-4v-1z" fill="#bebebe" transform="translate(3 3)"/></svg>

<svg xmlns="http://www.w3.org/2000/svg" width="22" height="22" viewBox="0 0 22 22">
 <defs>
  <style id="current-color-scheme" type="text/css">
   .ColorScheme-Text { color:#bebebe; } .ColorScheme-Highlight { color:#4285f4; }
  </style>
 </defs>
 <path style="fill:currentColor" class="ColorScheme-Text" d="M 7 1 L 7 2 L 3 2 L 3 6 L 7 6 L 7 10 L 3 10 L 3 14 L 7 14 L 7 15 L 9 15 L 9 14 L 13 14 L 13 10 L 9 10 L 9 6 L 13 6 L 13 2 L 9 2 L 9 1 L 7 1 z" transform="translate(3 3)"/>
</svg>
